X: 844
T: Gitti de Gelmeyiverdi
C: Denizoğlu Ali Bey
O: Turkey
F: http://compmusic.upf.edu/node/140
N: saba--sarki--aksak--gitti_de--denizoglu_ali_bey
N: makam= saba
N: form= sarki
N: usul= aksak = 9/8
M: 9/8
L: 1/16
K: C _2/4B _3/4d  
Q: 1/4=60
%%MIDI tuningsystem comma53
z2G4A2A4A_1/4BA2 | G2_7/8d4d2c2c2_1/4B2c2  | \
w:   |   | 
_1/4B3AA6_7/8d2d2c2 | _1/4B3AG2z2G4A2A4ABA2G2_7/8d4d2c2 | 
w:   |   | 
c2_1/4B2c2B3AA6  | _7/8d2c2d2e6z2d2 | \
w:   |   | 
c2_7/8d2e4e4d2c2  | _7/8d2d4d2c2c_1/4BA2B2 | 
w:   |   | 
c2_7/8d2e2f2g2_a2g2f2  | e2e3_7/8dd3cc4_1/4B4e2_dcc6G2A2  | 
w:   |   | 
_1/4B2c4B_7/8dc2z2c2d2 | _7/8d4c4_1/4B2z2cdc2  | \
w:   |   | 
_7/8d2d2c2_1/4B3AG2d2c2 | 
w:   | 
_7/8d2_1/4B2c2d2cdc2B2A3GA2B2c2d2B4BA | \
w:   | 
A6G2c2_1/4BAA3G  | 
w:   | 
^FGA2z2F2G2A2_1/4B2c4e2_7/8d4c2B2c2BA  | \
w:   | 
A4G2A2z2^F2G2A2 | 
w:   | 
_1/4B2c4e2_7/8d4c2B2  | c2_1/4BAA4z2_7/8d2c2d2 | \
w:   |   | 
_1/4B2c2_7/8d2cdc2B2A3G  | 
w:   | 
A2_1/4B2c2_7/8d2BcB2A2A6c2B2c2A4z2  | \
w:   | 
c2_7/8d2c2_1/4B2c2ded2c2 | 
w:   | 
_1/4B2c2_7/8d2c2B2A2B2c4G2c2d2c2B2c2de | \
w:   | 
_7/8d2c2_1/4B2A2B2c2d2B2  | 
w:   | 
A2A4G2c2_7/8d2c2_1/4B2 | c2_7/8ded2c2_1/4B2c2d2c2  | \
w:   |   | 
_1/4B2A2B2c4G2c2_7/8d2 | 
w:   | 
c2_1/4B2c2_7/8ded2c2B2A2  | _1/4B2c2_7/8d2B2A2A4z2 | |


